material/.icons/material/table-row-plus-after.svg

<svg xmlns="http://www.w3.org/2000/svg" viewBox="0 0 24 24"><path d="M22 10a2 2 0 01-2 2H4a2 2 0 01-2-2V3h2v2h4V3h2v2h4V3h2v2h4V3h2v7M4 10h4V7H4v3m6 0h4V7h-4v3m10 0V7h-4v3h4m-9 4h2v3h3v2h-3v3h-2v-3H8v-2h3v-3z"/></svg>

<?xml version="1.0" encoding="UTF-8"?><!DOCTYPE svg PUBLIC "-//W3C//DTD SVG 1.1//EN" "http://www.w3.org/Graphics/SVG/1.1/DTD/svg11.dtd"><svg xmlns="http://www.w3.org/2000/svg" xmlns:xlink="http://www.w3.org/1999/xlink" version="1.1" id="mdi-table-row-plus-after" width="24" height="24" viewBox="0 0 24 24"><path d="M22,10A2,2 0 0,1 20,12H4A2,2 0 0,1 2,10V3H4V5H8V3H10V5H14V3H16V5H20V3H22V10M4,10H8V7H4V10M10,10H14V7H10V10M20,10V7H16V10H20M11,14H13V17H16V19H13V22H11V19H8V17H11V14Z" /></svg>
